X: 27899
T: Mountain Lark, The
R: reel
M: 4/4
K: Gmajor
AG~G2 AGFD|AG~G2 Addc|AG~G2 AGFD|~F3G Addc:|
dg~g2 ag~g2|dg~g2 fdcA|dg~g2 ag~g2|dcde fdcA|
dg~g2 ag~g2|abag ~f3g|afge fdec|dfeg fdcA||

